X:218
T: Grserin (3-21), S. 73
N: P0993
O: Lothringen
S: PINCK, Louis: Verklingende Weisen, Bd3, Metz 1933]
R: Verfhrung, Standesunterschied]
M: 2/4
L: 1/16
K: F
F2 | F4F4 | c3cc2d2 | c4B2A2 | G8- | G4z2
c2 | c2B2A2G2 | F4G4 | F2E2D4 | C8- | C4z2
C2 | F4F4 | G4c4 | A4AG3 | GA6-A | A4AG3 | F8- | F4z2

@@@ Tune index: 7768
